X: 23550
T: Lifting Dew, The
R: jig
M: 6/8
K: Gmajor
|:BGE DEG|BGB dBd|cBA BAG|Ad^c ed=c|
BBB GGG|BGB dB/c/d|cBA BAG|DGF G3:|
Bdg Acf|GBe dBG|B/c/de dBG|A3 AGA|
Bdg Acf|GBe dBG|GBe dBG|AGF G3|
Bdg Acf|GBe dBG|B/c/de dBG|A3 AGA|
BGE DEG|BGB dBd|cBA BAG|DGF G3||

